assets/symbols/mulberry/scarf.svg

<svg height="850.393" viewBox="0 0 850.394 850.393" width="850.394" xmlns="http://www.w3.org/2000/svg"><g fill="#a3d9ff"><path d="m345.81 74.25c8.5.56 16.62 4.53 23.36 11.27 29 29 14.59 274.56.43 447.71h-100.33s32.95-129.791 18.5-277.51c-13.22-135.19 25.23-183.679 58.04-181.47z"/><path d="m369.6 533.231c14.16-173.15 28.57-418.71-.43-447.71-6.74-6.74-14.86-10.71-23.36-11.27l89.52-.9 76.25-.78c128.87 48.72 61.05 632.7 61.05 632.7h-218.87s4.03-38.149 9.24-95.56c2.08-22.84 4.34-48.73 6.6-76.48z"/></g><g fill="none"><path d="m369.61 533.231h-100.34s32.95-129.791 18.5-277.51c-13.22-135.191 25.23-183.68 58.04-181.471 8.5.56 16.62 4.53 23.36 11.27 29 29 14.59 274.56.43 447.71-2.26 27.75-4.52 53.64-6.6 76.479-5.21 57.41-9.24 95.56-9.24 95.56h218.87s67.82-583.979-61.05-632.7l-76.25.78-89.52.9-4.26.04m-72.51 458.381v76.3m30.66-75.319v76.3m32.34-77.141v76.311m30.51-75.76v76.309m-7.14 96.35v73.44m30.66-73.44v74.421m32.33-74.011v73.181m30.51-74v74.55m28.99-73.731v73.03m30.66-73.03v74.011m32.33-74.011v73.181m30.51-73.181v73.731" stroke="#000" stroke-width="20.157"/><path d="m0 0h850.394v850.393h-850.394z"/></g></svg>

<svg xmlns="http://www.w3.org/2000/svg" width="850.394" height="850.393" viewBox="0 0 850.394 850.393" overflow="visible"><g fill="#a3d9ff"><path d="M345.81 74.25c8.5.56 16.62 4.53 23.36 11.27 29 29 14.59 274.56.43 447.71H269.27s32.95-129.791 18.5-277.51C274.55 120.53 313 72.041 345.81 74.25z"/><path d="M369.6 533.231c14.16-173.15 28.57-418.71-.43-447.71-6.74-6.74-14.86-10.71-23.36-11.27l89.52-.9 76.25-.78c128.87 48.72 61.05 632.7 61.05 632.7H353.76s4.03-38.149 9.24-95.56c2.08-22.84 4.34-48.73 6.6-76.48z"/></g><g fill="none" stroke="#000" stroke-width="20.157"><path d="M369.61 533.231H269.27s32.95-129.791 18.5-277.51C274.55 120.53 313 72.041 345.81 74.25c8.5.56 16.62 4.53 23.36 11.27 29 29 14.59 274.56.43 447.71-2.26 27.75-4.52 53.64-6.6 76.479-5.21 57.41-9.24 95.56-9.24 95.56h218.87s67.82-583.979-61.05-632.7l-76.25.78-89.52.9-4.26.04M269.04 532.67v76.3M299.7 533.651v76.3M332.04 532.81v76.311M362.55 533.361v76.309M355.41 706.02v73.44M386.07 706.02v74.421M418.4 706.43v73.181M448.91 705.611v74.55M477.9 706.43v73.03M508.56 706.43v74.011M540.89 706.43v73.181M571.4 706.43v73.731"/></g><path fill="none" d="M0 0h850.394v850.393H0z"/></svg>
